!!!COM:	Bach, Johann Sebastian
!!!CDT:	1685/02/21/-1750/07/28/
!!!OTL@@DE:	Ich danke dir, o Gott, in deinem Throne
!!!SCT:	BWV 350
!!!PC#:	229
!!!AGN:	chorale
**kern	**kern	**kern	**kern
*ICvox	*ICvox	*ICvox	*ICvox
*Ibass	*Itenor	*Ialto	*Isoprn
*I"Bass	*I"Tenor	*I"Alto	*I"Soprano
*clefF4	*clefGv2	*clefG2	*clefG2
*k[b-e-]	*k[b-e-]	*k[b-e-]	*k[b-e-]
*g:	*g:	*g:	*g:
*M4/4	*M4/4	*M4/4	*M4/4
*met(c)	*met(c)	*met(c)	*met(c)
*MM100	*MM100	*MM100	*MM100
8GGL	8B-L	4d	4g
8AAJ	8cJ	.	.
=1	=1	=1	=1
4BB-	4d	8gL	4g
.	.	8fJ	.
4GG	4B-	8e-L	4g
.	.	8dJ	.
4AA	8AL	[4c	8fL
.	8GJ	.	8e-J
[4BB-	4F	8cL]	4d
.	.	8B-J	.
=2	=2	=2	=2
8BB-L]	4B-	4d	4f
8AAJ	.	.	.
[4GG	4B-	8e-L	4g
.	.	8dJ	.
8GGL]	4.c	4e-	4a
8FF#J	.	.	.
4GG	.	4d	4g
.	8B-	.	.
=3	=3	=3	=3
4C	[4A	4e-	4g
4D	16ALL]	4d	4f#
.	16B-J	.	.
.	[8cJ	.	.
4GG;	8cL]	4d;	4g;
.	8B-;J	.	.
4GG	4d	4g	4b-
=4	=4	=4	=4
4D	8.dL	8gL	4a
.	.	8f#J	.
.	16cJk	.	.
4E-	4B-	8gL	4g
.	.	8e-J	.
8AAL	8cL	4c	4f
8FFJ	8AJ	.	.
[4BB-	4F	8cL	4d
.	.	16B-L	.
.	.	16cJJ	.
=5	=5	=5	=5
4BB-]	8B-L	8dL	4f
.	8AJ	8cJ	.
8E-L	4G	4B-	4g
8DJ	.	.	.
4.C	4c	8e-L	4a
.	.	8dJ	.
.	[4B-	4e	4g
8C#	.	.	.
=6	=6	=6	=6
2D	8B-L]	4d	4g
.	16AL	.	.
.	16GJJ	.	.
.	16ALL	4d	4f#
.	16B-J	.	.
.	8cJ	.	.
4GG;	4B-;	4d;	4g;
8GGL	8B-L	4g	4dd
8AAJ	8cJ	.	.
=7	=7	=7	=7
8BB-L	8dL	4.g	4dd
8CJ	16cL	.	.
.	16B-JJ	.	.
4D	8AL	.	4dd
.	16B-L	8f#	.
.	16cJJ	.	.
4E-X	2B-	4g	4g
4E	.	4g	4cc
=8	=8	=8	=8
4F#	4.A	4d	4cc
4G	.	[4d	4b-
.	[8G	.	.
4D	8GL]	8dL]	4a
.	8F#J	8cJ	.
4E-X	8GL	8B-L	4g
.	8B-J	8dJ	.
=9	=9	=9	=9
4AA	8AL	8cL	2fnX
.	8GJ	8B-J	.
4FF	4A	4c	.
4BB-;	4F;	4B-;	4d;
8GGL	8B-L	4d	4g
8AAJ	8cJ	.	.
=10	=10	=10	=10
8BB-L	8dL	8dL	4g
8CJ	16cL	8e-J	.
.	16B-JJ	.	.
4D	4A	8dL	4f#
.	.	8cJ	.
4E-X	4G	8B-L	4g
.	.	8cJ	.
8DL	4A	4d	4f#
8CJ	.	.	.
=11	=11	=11	=11
8BB-L	4G	4d	4g
8C	.	.	.
8BB-	4A	4c	4f#
8AAJ	.	.	.
8GGL	4B-	4d	4g
8AA	.	.	.
8GG	[4A	4d	4a
8FF#J	.	.	.
=12	=12	=12	=12
8GGL	4A]	2d	2b-
8AA	.	.	.
8BB-	4G	.	.
8GGJ	.	.	.
4D;	4F#;	4d;	4a;
4GG	[4G	4d	4b-
=13	=13	=13	=13
4D	8GL]	8.dL	4a
.	8F#J	.	.
.	.	16cJk	.
4E-	8GL	4B-	4g
.	8E-J	.	.
4AA	8CL	4c	4fnX
.	8FJ	.	.
8BB-L	4F	4B-	8dL
8CJ	.	.	8e-J
=14	=14	=14	=14
4D	8FL	8AL	4f
.	16GL	16B-L	.
.	16AJJ	16cJJ	.
4D	4B-	16dLL	4f
.	.	16e-J	.
.	.	[8fJ	.
4E-	4B-	8fL]	4g
.	.	[8e-J	.
4BB-	8.B-L	8e-L]	4f
.	.	[8dJ	.
.	16AJk	.	.
=15	=15	=15	=15
8CL	2G	8dL]	2e-
8DJ	.	16cL	.
.	.	16BJJ	.
8E-L	.	4c	.
8CJ	.	.	.
4G;	4G;	4B;	4d;
4GG	4B-X	[4g	4dd
=16	=16	=16	=16
4AA	4c	8gL]	4cc
.	.	8f#J	.
8BB-L	4d	[4g	4b-
8CJ	.	.	.
4.D	4d	8gL]	4a
.	.	16f#L	.
.	.	16eJJ	.
.	4A	[4d	4f#
8C	.	.	.
=17	=17	=17	=17
4BB-	4B-	8dL]	4g
.	.	8eJ	.
8AAL	8cL	8f#L	8aL
8GGJ	8dJ	8gJ	8b-J
4FF#	8e-XL	4.a	4cc
.	8dJ	.	.
4GG	4d	.	4b-
.	.	8g	.
=18	=18	=18	=18
4C	8e-L	8gL	2a
.	8cJ	16f#L	.
.	.	16eJJ	.
4D	8AL	4f#	.
.	8dJ	.	.
4GG;	4B;	4d;	4g;
==	==	==	==
*-	*-	*-	*-
!!!hum2abc: -Q ''
!!!title: @{PC#}. @{OTL@@DE}
!!!YOR1: 371 vierstimmige Choralges&auml;nge von Johann Sebastian Bach, 
!!!YOR2: 4th ed. by Alfred D&ouml;rffel (Leipzig: Breitkopf und H&auml;rtel, 
!!!YOR2: c.1875). 178 pp. Plate "V.A.10".  reprint: J.S. Bach, 371 Four-Part 
!!!YOR4: Chorales (New York: Associated Music Publishers, Inc., c.1940).
!!!SMS: B&H, 4th ed, Alfred D&ouml;rffel, c.1875, plate V.A.10
!!!EED:  Craig Stuart Sapp
!!!EEV:  2009/05/22
